X:189
T:Tom Tinker (Beggars' Opera version)
M:3/4
L:1/8
K:F
%%score 1 2
V:1 clef-treble
V:2 clef-bass octave=-1
[V:1]c2|[Ec]2 cd[Gd]c|[f(F]2c2)[Ec]2|[E(G]2E2)E2|E4C2|[CF]EFG[FA]B|[c(C]2G2)[=B,G]2|[C(E]2C2)C2|
[V:2]z2|c4B2|A4c2|x2A2A2 & F4F2|A4z2 & F4x2|A4F2|D4G2|x2E2E2 & C4C2|
[V:1]C6:||G3 AGF & D2x4|(E2C2)C2|A3 BAG & E2x4|(F2D2)D2|B3 cBA & F2x4|(G2[c)E]2[GB]2|[A(F]2F2)F2|F4||
[V:2]E6 & C6:||[=B,G]6-|[B,G]4z2|[C(A]6[A)D]4z2|[DB]6|[Ec]2[Cc]4|c2A2A2 & F4F2|A4 & F4||

